SVG_Azure_Grouped/AI/Cognitive Services QnA Extracter.svg

<?xml version="1.0" encoding="UTF-8" standalone="no"?>
<!-- Generated by Microsoft Visio, SVG Export Cognitive Services QnA Extracter.svg Page-1 -->

<svg
   xmlns:dc="http://purl.org/dc/elements/1.1/"
   xmlns:cc="http://creativecommons.org/ns#"
   xmlns:rdf="http://www.w3.org/1999/02/22-rdf-syntax-ns#"
   xmlns:svg="http://www.w3.org/2000/svg"
   xmlns="http://www.w3.org/2000/svg"
   xmlns:sodipodi="http://sodipodi.sourceforge.net/DTD/sodipodi-0.dtd"
   xmlns:inkscape="http://www.inkscape.org/namespaces/inkscape"
   width="0.7872597in"
   height="0.78742468in"
   viewBox="0 0 56.682725 56.694601"
   xml:space="preserve"
   class="st3"
   version="1.1"
   id="svg56"
   sodipodi:docname="Cognitive Services QnA Extracter.svg"
   style="font-size:12px;overflow:visible;color-interpolation-filters:sRGB;fill:none;fill-rule:evenodd;stroke-linecap:square;stroke-miterlimit:3"
   inkscape:version="0.92.5 (2060ec1f9f, 2020-04-08)"><metadata
   id="metadata62"><rdf:RDF><cc:Work
       rdf:about=""><dc:format>image/svg+xml</dc:format><dc:type
         rdf:resource="http://purl.org/dc/dcmitype/StillImage" /></cc:Work></rdf:RDF></metadata><defs
   id="defs60" /><sodipodi:namedview
   pagecolor="#ffffff"
   bordercolor="#666666"
   borderopacity="1"
   objecttolerance="10"
   gridtolerance="10"
   guidetolerance="10"
   inkscape:pageopacity="0"
   inkscape:pageshadow="2"
   inkscape:window-width="640"
   inkscape:window-height="480"
   id="namedview58"
   showgrid="false"
   inkscape:zoom="1.7108234"
   inkscape:cx="37.788648"
   inkscape:cy="23.619725"
   inkscape:window-x="0"
   inkscape:window-y="0"
   inkscape:window-maximized="0"
   inkscape:current-layer="svg56" />
	<style
   type="text/css"
   id="style2">
	<![CDATA[
		.st1 {fill:#50e6ff;stroke:none;stroke-linecap:butt;stroke-width:12.75}
		.st2 {fill:#0078d4;stroke:none;stroke-linecap:butt;stroke-width:12.75}
		.st3 {fill:none;fill-rule:evenodd;font-size:12px;overflow:visible;stroke-linecap:square;stroke-miterlimit:3}
	]]>
	</style>

	<g
   id="g54"
   transform="translate(-12.75,-12.7497)">
		<title
   id="title4">Page-1</title>
		<g
   id="group18445-1"
   transform="translate(12.75,-34.0157)">
			<title
   id="title6">Cognitive Services QnA Extracter.18445</title>
			<g
   id="shape18446-2"
   transform="translate(41.7227,-41.5774)">
				<title
   id="title8">Sheet.18446</title>
				<path
   d="M 7.48,103.46 C 3.35,103.46 0,100.11 0,95.97 c 0,-4.13 3.35,-7.48 7.48,-7.48 4.13,0 7.48,3.35 7.48,7.48 0.01,4.14 -3.34,7.49 -7.48,7.49 z"
   class="st1"
   id="path10"
   inkscape:connector-curvature="0"
   style="fill:#50e6ff;stroke:none;stroke-width:12.75;stroke-linecap:butt" />
			</g>
			<g
   id="shape18447-4"
   transform="translate(41.7227,-20.8027)">
				<title
   id="title13">Sheet.18447</title>
				<path
   d="M 7.48,103.46 C 3.35,103.46 0,100.11 0,95.97 c 0,-4.13 3.35,-7.48 7.48,-7.48 4.13,0 7.48,3.35 7.48,7.48 0.01,4.13 -3.34,7.49 -7.48,7.49 z"
   class="st1"
   id="path15"
   inkscape:connector-curvature="0"
   style="fill:#50e6ff;stroke:none;stroke-width:12.75;stroke-linecap:butt" />
			</g>
			<g
   id="shape18448-6"
   transform="translate(0,-20.8723)">
				<title
   id="title18">Sheet.18448</title>
				<path
   d="M 14.89,88.56 H 0 v 14.9 h 14.89 z"
   class="st2"
   id="path20"
   inkscape:connector-curvature="0"
   style="fill:#0078d4;stroke:none;stroke-width:12.75;stroke-linecap:butt" />
			</g>
			<g
   id="shape18449-8"
   transform="translate(0,-41.7946)">
				<title
   id="title23">Sheet.18449</title>
				<path
   d="M 14.89,88.56 H 0 v 14.9 h 14.89 z"
   class="st2"
   id="path25"
   inkscape:connector-curvature="0"
   style="fill:#0078d4;stroke:none;stroke-width:12.75;stroke-linecap:butt" />
			</g>
			<g
   id="shape18450-10">
				<title
   id="title28">Sheet.18450</title>
				<path
   d="M 14.89,88.56 H 0 v 14.9 h 14.89 z"
   class="st2"
   id="path30"
   inkscape:connector-curvature="0"
   style="fill:#0078d4;stroke:none;stroke-width:12.75;stroke-linecap:butt" />
			</g>
			<g
   id="shape18451-12"
   transform="translate(41.7227,-0.0418108)">
				<title
   id="title33">Sheet.18451</title>
				<path
   d="M 7.48,103.46 C 3.35,103.46 0,100.11 0,95.97 c 0,-4.13 3.35,-7.48 7.48,-7.48 4.13,0 7.48,3.35 7.48,7.48 0.01,4.14 -3.34,7.49 -7.48,7.49 z"
   class="st1"
   id="path35"
   inkscape:connector-curvature="0"
   style="fill:#50e6ff;stroke:none;stroke-width:12.75;stroke-linecap:butt" />
			</g>
			<g
   id="shape18452-14"
   transform="translate(22.4607,-1.25645)">
				<title
   id="title38">Sheet.18452</title>
				<path
   d="M 14.86,97.41 8.8,91.34 v 3.03 H 0 v 6.06 h 8.8 v 3.03 z"
   class="st2"
   id="path40"
   inkscape:connector-curvature="0"
   style="fill:#0078d4;stroke:none;stroke-width:12.75;stroke-linecap:butt" />
			</g>
			<g
   id="shape18453-16"
   transform="translate(22.4607,-22.1234)">
				<title
   id="title43">Sheet.18453</title>
				<path
   d="M 14.86,97.41 8.8,91.34 v 3.03 H 0 v 6.06 h 8.8 v 3.03 z"
   class="st2"
   id="path45"
   inkscape:connector-curvature="0"
   style="fill:#0078d4;stroke:none;stroke-width:12.75;stroke-linecap:butt" />
			</g>
			<g
   id="shape18454-18"
   transform="translate(22.4607,-43.0588)">
				<title
   id="title48">Sheet.18454</title>
				<path
   d="M 14.86,97.4 8.8,91.33 v 3.03 H 0 v 6.07 h 8.8 v 3.03 z"
   class="st2"
   id="path50"
   inkscape:connector-curvature="0"
   style="fill:#0078d4;stroke:none;stroke-width:12.75;stroke-linecap:butt" />
			</g>
		</g>
	</g>
</svg>

<?xml version="1.0" encoding="UTF-8" standalone="no"?>
<!DOCTYPE svg PUBLIC "-//W3C//DTD SVG 1.1//EN" "http://www.w3.org/Graphics/SVG/1.1/DTD/svg11.dtd">
<!-- Generated by Microsoft Visio, SVG Export Cognitive Services QnA Extracter.svg Page-1 -->
<svg xmlns="http://www.w3.org/2000/svg" xmlns:xlink="http://www.w3.org/1999/xlink" xmlns:ev="http://www.w3.org/2001/xml-events"
		width="1.14143in" height="1.43693in" viewBox="0 0 82.183 103.459" xml:space="preserve" color-interpolation-filters="sRGB"
		class="st3">
	<style type="text/css">
	<![CDATA[
		.st1 {fill:#50e6ff;stroke:none;stroke-linecap:butt;stroke-width:12.75}
		.st2 {fill:#0078d4;stroke:none;stroke-linecap:butt;stroke-width:12.75}
		.st3 {fill:none;fill-rule:evenodd;font-size:12px;overflow:visible;stroke-linecap:square;stroke-miterlimit:3}
	]]>
	</style>

	<g>
		<title>Page-1</title>
		<g id="group18015-1" transform="translate(12.75,-34.0157)">
			<title>Cognitive Services QnA Extracter.18015</title>
			<g id="shape18016-2" transform="translate(41.7227,-41.5774)">
				<title>Sheet.18016</title>
				<path d="M7.48 103.46 C3.35 103.46 0 100.11 0 95.97 C0 91.84 3.35 88.49 7.48 88.49 C11.61 88.49 14.96 91.84 14.96
							 95.97 C14.97 100.11 11.62 103.46 7.48 103.46 Z" class="st1"/>
			</g>
			<g id="shape18017-4" transform="translate(41.7227,-20.8027)">
				<title>Sheet.18017</title>
				<path d="M7.48 103.46 C3.35 103.46 0 100.11 0 95.97 C0 91.84 3.35 88.49 7.48 88.49 C11.61 88.49 14.96 91.84 14.96
							 95.97 C14.97 100.1 11.62 103.46 7.48 103.46 Z" class="st1"/>
			</g>
			<g id="shape18018-6" transform="translate(0,-20.8723)">
				<title>Sheet.18018</title>
				<path d="M14.89 88.56 L0 88.56 L0 103.46 L14.89 103.46 L14.89 88.56 Z" class="st2"/>
			</g>
			<g id="shape18019-8" transform="translate(0,-41.7946)">
				<title>Sheet.18019</title>
				<path d="M14.89 88.56 L0 88.56 L0 103.46 L14.89 103.46 L14.89 88.56 Z" class="st2"/>
			</g>
			<g id="shape18020-10">
				<title>Sheet.18020</title>
				<path d="M14.89 88.56 L0 88.56 L0 103.46 L14.89 103.46 L14.89 88.56 Z" class="st2"/>
			</g>
			<g id="shape18021-12" transform="translate(41.7227,-0.0418108)">
				<title>Sheet.18021</title>
				<path d="M7.48 103.46 C3.35 103.46 0 100.11 0 95.97 C0 91.84 3.35 88.49 7.48 88.49 C11.61 88.49 14.96 91.84 14.96
							 95.97 C14.97 100.11 11.62 103.46 7.48 103.46 Z" class="st1"/>
			</g>
			<g id="shape18022-14" transform="translate(22.4607,-1.25645)">
				<title>Sheet.18022</title>
				<path d="M14.86 97.41 L8.8 91.34 L8.8 94.37 L0 94.37 L0 100.43 L8.8 100.43 L8.8 103.46 L14.86 97.41 Z" class="st2"/>
			</g>
			<g id="shape18023-16" transform="translate(22.4607,-22.1234)">
				<title>Sheet.18023</title>
				<path d="M14.86 97.41 L8.8 91.34 L8.8 94.37 L0 94.37 L0 100.43 L8.8 100.43 L8.8 103.46 L14.86 97.41 Z" class="st2"/>
			</g>
			<g id="shape18024-18" transform="translate(22.4607,-43.0588)">
				<title>Sheet.18024</title>
				<path d="M14.86 97.4 L8.8 91.33 L8.8 94.36 L0 94.36 L0 100.43 L8.8 100.43 L8.8 103.46 L14.86 97.4 Z" class="st2"/>
			</g>
		</g>
	</g>
</svg>
